public/assets/images/icons/yellow/folder-inbox-empty.svg

<svg xmlns="http://www.w3.org/2000/svg" viewBox="0 0 54 54"><path d="M28 11V9.94a3 3 0 0 0-3-3H14a3 3 0 0 0-3 3V11H3v35h48V11zm20 32H6V13.94h42z" fill="#ffad00"/><path d="M12 17.47v3.06l15 10.38 15-10.38v-3.06zm15 9.7-9.59-6.64h19.18z" fill="#ffad00"/><path d="M38.88 36.41H15.13l-.03-11.29-3.1-2.15v16.5h30v-16.5l-3.1 2.15-.02 11.29z" fill="#ffad00"/></svg>

<svg xmlns="http://www.w3.org/2000/svg" viewBox="0 0 54 54"><defs><style>.a{fill:#ffad00;}</style></defs><path class="a" d="M28,11V9.94a3,3,0,0,0-3-3H14a3,3,0,0,0-3,3V11H3V46H51V11ZM48,43H6V13.94H48Z"/><path class="a" d="M12,17.47v3.06L27,30.91,42,20.53V17.47Zm15,9.7-9.59-6.64H36.59Z"/><polygon class="a" points="38.88 36.41 15.13 36.41 15.1 25.12 12 22.97 12 39.47 42 39.47 42 22.97 38.9 25.12 38.88 36.41"/></svg>
